flaticon/hand-gestures/drag-2.svg

<svg xmlns="http://www.w3.org/2000/svg" width="32" height="32" viewBox="0 0 24 24">
    <path d="M23.40625 1.199219L18.765625 1.199219 19.285156.679688C19.445312.519531 19.445312.28125 19.285156.121094 19.125-.0390625 18.886719-.0390625 18.726562.121094L17.527344 1.320312C17.367188 1.480469 17.367188 1.71875 17.527344 1.878906L18.726562 3.078125C18.804688 3.160156 18.886719 3.199219 19.003906 3.199219 19.125 3.199219 19.207031 3.160156 19.285156 3.078125 19.445312 2.921875 19.445312 2.679688 19.285156 2.519531L18.765625 2 23.40625 2C23.644531 2 23.804688 1.839844 23.804688 1.601562 23.804688 1.359375 23.644531 1.199219 23.40625 1.199219zM17.40625 8.398438C16.964844 8.398438 16.527344 8.558594 16.207031 8.800781L16.207031 8.398438C16.207031 7.28125 15.324219 6.398438 14.207031 6.398438 13.765625 6.398438 13.324219 6.558594 13.003906 6.800781 13.003906 5.679688 12.125 4.800781 11.003906 4.800781 10.566406 4.800781 10.125 4.960938 9.804688 5.199219L9.804688 2C9.804688.878906 8.925781 0 7.804688 0 6.6875 0 5.804688.878906 5.804688 2L5.804688 11.078125C4.925781 9.558594 2.886719 8.800781 1.324219 9.359375 1.125 9.398438.964844 9.519531.765625 9.640625.164062 10.039062.207031 10.558594.207031 10.71875.164062 10.960938.207031 11 .765625 11.640625 1.445312 12.441406 2.925781 14.121094 3.84375 15.800781 3.925781 15.878906 5.003906 17.640625 6.207031 18.960938L6.207031 20C6.207031 22.199219 8.003906 24 10.207031 24L14.207031 24C15.925781 24 17.726562 22.558594 18.125 20.878906 18.246094 20.398438 18.367188 20.039062 18.527344 19.878906 18.925781 19.398438 19.40625 18.28125 19.40625 16.800781L19.40625 10.398438C19.40625 9.28125 18.527344 8.398438 17.40625 8.398438zM14.246094 23.199219L10.246094 23.199219C8.484375 23.199219 7.046875 21.761719 7.046875 20L7.046875 19.636719C7.125 19.695312 7.203125 19.75 7.285156 19.800781 7.527344 20 7.726562 20.121094 7.964844 20.320312 8.046875 20.359375 8.125 20.398438 8.207031 20.398438 8.324219 20.398438 8.445312 20.359375 8.484375 20.238281 8.644531 20.078125 8.605469 19.839844 8.445312 19.679688 8.207031 19.441406 7.964844 19.28125 7.726562 19.121094 7.449219 18.921875 7.171875 18.722656 6.894531 18.488281 5.707031 17.246094 4.566406 15.398438 4.566406 15.398438 3.605469 13.679688 2.085938 11.960938 1.367188 11.121094 1.246094 10.960938 1.085938 10.761719 1.003906 10.679688 1.003906 10.558594 1.003906 10.480469 1.285156 10.320312 1.445312 10.238281 1.566406 10.160156 1.6875 10.121094 2.726562 9.761719 4.445312 10.238281 5.207031 11.558594L5.824219 12.488281C5.828125 12.511719 5.835938 12.535156 5.84375 12.558594L6.246094 13.359375C6.324219 13.519531 6.445312 13.601562 6.605469 13.601562 6.683594 13.601562 6.726562 13.601562 6.765625 13.519531 6.925781 13.441406 7.003906 13.199219 6.925781 13L6.644531 12.4375C6.644531 12.421875 6.644531 12.410156 6.644531 12.398438L6.644531 2C6.644531 1.320312 7.164062.800781 7.84375.800781 8.527344.800781 9.046875 1.320312 9.046875 2L9.046875 13.160156C9.046875 13.398438 9.207031 13.558594 9.445312 13.558594 9.683594 13.558594 9.84375 13.398438 9.84375 13.160156L9.84375 6.800781C9.84375 6.121094 10.367188 5.601562 11.046875 5.601562 11.726562 5.601562 12.246094 6.121094 12.246094 6.800781L12.246094 12.800781C12.246094 13.039062 12.40625 13.199219 12.644531 13.199219 12.886719 13.199219 13.046875 13.039062 13.046875 12.800781L13.046875 8.398438C13.046875 7.71875 13.566406 7.199219 14.246094 7.199219 14.925781 7.199219 15.445312 7.71875 15.445312 8.398438L15.445312 13.199219C15.445312 13.441406 15.605469 13.601562 15.84375 13.601562 16.085938 13.601562 16.246094 13.441406 16.246094 13.199219L16.246094 10.398438C16.246094 9.71875 16.765625 9.199219 17.445312 9.199219 18.125 9.199219 18.644531 9.71875 18.644531 10.398438L18.644531 16.800781C18.644531 17.542969 18.5 18.144531 18.332031 18.582031 18.296875 18.621094 18.265625 18.667969 18.246094 18.71875 18.085938 19.238281 17.605469 19.359375 16.726562 19.601562L16.484375 19.640625C16.285156 19.679688 16.164062 19.921875 16.207031 20.121094 16.285156 20.28125 16.445312 20.398438 16.605469 20.398438 16.644531 20.398438 16.683594 20.398438 16.726562 20.398438L16.925781 20.398438C17.109375 20.351562 17.292969 20.300781 17.472656 20.246094 17.429688 20.382812 17.394531 20.527344 17.367188 20.679688 17.085938 22.039062 15.605469 23.199219 14.246094 23.199219zM14.246094 23.199219"/>
</svg>

<svg xmlns="http://www.w3.org/2000/svg" width="32" height="32" viewBox="0 0 24 24">
    <path d="M23.406 1.2h-4.64l.52-.52a.385.385 0 0 0 0-.559.385.385 0 0 0-.56 0l-1.199 1.2a.385.385 0 0 0 0 .558l1.2 1.2c.078.081.16.12.277.12.121 0 .203-.039.281-.12a.385.385 0 0 0 0-.56L18.765 2h4.641c.239 0 .399-.16.399-.398 0-.243-.16-.403-.399-.403zm0 0M17.406 8.398c-.441 0-.879.16-1.199.403v-.403c0-1.117-.883-2-2-2-.441 0-.883.16-1.203.403 0-1.121-.879-2-2-2-.438 0-.879.16-1.2.398V2c0-1.121-.878-2-2-2-1.117 0-2 .879-2 2v9.078c-.878-1.52-2.917-2.277-4.48-1.719-.199.04-.36.16-.558.282-.602.398-.559.918-.559 1.078-.043.242 0 .281.559.922.68.8 2.16 2.48 3.078 4.16.082.078 1.16 1.84 2.363 3.16V20c0 2.2 1.797 4 4 4h4c1.719 0 3.52-1.441 3.918-3.121.121-.48.242-.84.402-1 .399-.48.88-1.598.88-3.078v-6.403c0-1.117-.88-2-2-2zM14.246 23.2h-4A3.206 3.206 0 0 1 7.046 20v-.363c.079.058.157.113.24.164.241.199.44.32.679.52.082.038.16.077.242.077.117 0 .238-.039.277-.16.16-.16.121-.398-.039-.558-.238-.239-.48-.399-.718-.559-.278-.2-.555-.398-.832-.633-1.188-1.242-2.329-3.09-2.329-3.09-.96-1.718-2.48-3.437-3.199-4.277a5.525 5.525 0 0 0-.363-.441c0-.121 0-.2.281-.36.16-.082.281-.16.403-.199 1.039-.36 2.757.117 3.519 1.438l.617.93c.004.023.012.046.02.07l.402.8c.078.16.2.243.36.243.078 0 .12 0 .16-.082.16-.079.238-.32.16-.52l-.281-.563V2c0-.68.52-1.2 1.199-1.2.683 0 1.203.52 1.203 1.2v11.16c0 .238.16.399.398.399.239 0 .399-.16.399-.399V6.8c0-.679.523-1.198 1.203-1.198s1.2.52 1.2 1.199v6c0 .238.16.398.398.398.242 0 .402-.16.402-.398V8.398c0-.68.52-1.199 1.2-1.199.679 0 1.198.52 1.198 1.2v4.8c0 .242.16.403.399.403.242 0 .402-.16.402-.403v-2.8c0-.68.52-1.2 1.2-1.2.679 0 1.199.52 1.199 1.2V16.8c0 .742-.145 1.344-.313 1.781a.45.45 0 0 0-.086.137c-.16.52-.64.64-1.52.883l-.242.039c-.199.039-.32.28-.277.48.078.16.238.277.398.277h.321c.183-.046.367-.097.547-.152a3.519 3.519 0 0 0-.106.434c-.281 1.36-1.762 2.52-3.12 2.52zm0 0"/>
</svg>
